assets/img/icon_hour.svg

<svg width="43" height="43" viewBox="0 0 43 43" version="1.1" xmlns="http://www.w3.org/2000/svg" xmlns:xlink="http://www.w3.org/1999/xlink">
<title>icon_hour</title>
<desc>Created using Figma</desc>
<g id="Canvas" transform="translate(-4308 -1162)">
<g id="icon_hour">
<g id="Ellipse">
<use xlink:href="#path0_fill" transform="translate(4308 1162)" fill="#FFFFFF"/>
</g>
<g id="004-home">
<g id="Group">
<g id="Vector">
<use xlink:href="#path1_fill" transform="translate(4316.32 1170.32)" fill="#8064FF"/>
</g>
<g id="Vector">
<use xlink:href="#path2_fill" transform="translate(4322.07 1179.72)" fill="#8064FF"/>
</g>
<g id="Vector">
<use xlink:href="#path3_fill" transform="translate(4330.04 1179.72)" fill="#8064FF"/>
</g>
<g id="Vector">
<use xlink:href="#path4_fill" transform="translate(4322.07 1187.63)" fill="#8064FF"/>
</g>
<g id="Vector">
<use xlink:href="#path5_fill" transform="translate(4330.04 1187.63)" fill="#8064FF"/>
</g>
</g>
</g>
</g>
</g>
<defs>
<path id="path0_fill" d="M 43 21.5C 43 33.3741 33.3741 43 21.5 43C 9.62588 43 0 33.3741 0 21.5C 0 9.62588 9.62588 0 21.5 0C 33.3741 0 43 9.62588 43 21.5Z"/>
<path id="path1_fill" d="M 25.5201 11.7093L 12.8305 0L 0.141225 11.7093C -0.0375218 11.8746 -0.0481403 12.1529 0.118218 12.331C 0.283691 12.5086 0.564642 12.5187 0.743388 12.3538L 2.21185 10.9988L 2.21185 25.6613L 23.4491 25.6613L 23.4491 10.9983L 24.9175 12.3534C 25.0025 12.4321 25.1109 12.4708 25.2188 12.4708C 25.3378 12.4708 25.456 12.4237 25.5427 12.3305C 25.7095 12.1529 25.6989 11.8746 25.5201 11.7093ZM 22.5642 24.782L 3.09674 24.782L 3.09674 10.1819L 12.8305 1.19986L 22.5642 10.1819L 22.5642 24.782Z"/>
<path id="path2_fill" d="M 7.08868e-08 6.15537L 6.19419 6.15537L 6.19419 -1.00632e-07L 7.08868e-08 -1.00632e-07L 7.08868e-08 6.15537ZM 0.884884 0.879338L 5.3093 0.879338L 5.3093 5.27603L 0.884884 5.27603L 0.884884 0.879338Z"/>
<path id="path3_fill" d="M 6.19419 -1.00632e-07L -3.51059e-07 -1.00632e-07L -3.51059e-07 6.15537L 6.19419 6.15537L 6.19419 -1.00632e-07ZM 5.3093 5.27603L 0.884883 5.27603L 0.884883 0.879338L 5.3093 0.879338L 5.3093 5.27603Z"/>
<path id="path4_fill" d="M 7.08868e-08 6.15537L 6.19419 6.15537L 6.19419 7.3797e-07L 7.08868e-08 7.3797e-07L 7.08868e-08 6.15537ZM 0.884884 0.879339L 5.3093 0.879339L 5.3093 5.27603L 0.884884 5.27603L 0.884884 0.879339Z"/>
<path id="path5_fill" d="M 6.19419 7.3797e-07L -3.51059e-07 7.3797e-07L -3.51059e-07 6.15537L 6.19419 6.15537L 6.19419 7.3797e-07ZM 5.3093 5.27603L 0.884883 5.27603L 0.884883 0.879339L 5.3093 0.879339L 5.3093 5.27603Z"/>
</defs>
</svg>

<svg width="43" height="43" xmlns="http://www.w3.org/2000/svg" xmlns:xlink="http://www.w3.org/1999/xlink"><use xlink:href="#path0_fill" fill="#FFF"/><use xlink:href="#path1_fill" transform="translate(8.32 8.32)" fill="#8064FF"/><use xlink:href="#path2_fill" transform="translate(14.07 17.72)" fill="#8064FF"/><use xlink:href="#path3_fill" transform="translate(22.04 17.72)" fill="#8064FF"/><use xlink:href="#path4_fill" transform="translate(14.07 25.63)" fill="#8064FF"/><use xlink:href="#path5_fill" transform="translate(22.04 25.63)" fill="#8064FF"/><defs><path id="path0_fill" d="M43 21.5C43 33.374 33.374 43 21.5 43S0 33.374 0 21.5 9.626 0 21.5 0 43 9.626 43 21.5z"/><path id="path1_fill" d="M25.52 11.71L12.83 0 .142 11.71a.438.438 0 0 0-.023.621.445.445 0 0 0 .625.023l1.469-1.355V25.66H23.45V10.998l1.468 1.355a.442.442 0 0 0 .626-.022.437.437 0 0 0-.023-.622zm-2.956 13.072H3.097v-14.6L12.83 1.2l9.734 8.982v14.6z"/><path id="path2_fill" d="M0 6.155h6.194V0H0v6.155zM.885.88h4.424v4.397H.885V.879z"/><path id="path3_fill" d="M6.194 0H0v6.155h6.194V0zM5.31 5.276H.885V.879h4.424v4.397z"/><path id="path4_fill" d="M0 6.155h6.194V0H0v6.155zM.885.88h4.424v4.397H.885V.879z"/><path id="path5_fill" d="M6.194 0H0v6.155h6.194V0zM5.31 5.276H.885V.879h4.424v4.397z"/></defs></svg>
